Adwaita++/actions/16/layer-new.svg

<svg height="16" viewBox="0 0 16 16" width="16" xmlns="http://www.w3.org/2000/svg">
  <path d="m4 1-3 3h9l3-3zm0 4-3 3h9l3-3zm7 4v2h-2v2h2v2h2v-2h2v-2h-2v-2z" fill="#474747"/>
</svg>

<svg xmlns="http://www.w3.org/2000/svg" width="16" height="16" viewBox="0 0 16 16">
 <defs>
  <style id="current-color-scheme" type="text/css">
   .ColorScheme-Text { color:#474747; } .ColorScheme-Highlight { color:#4285f4; }
  </style>
 </defs>
 <path style="fill:currentColor" class="ColorScheme-Text" d="M 4 1 L 1 4 L 10 4 L 13 1 L 4 1 z M 4 5 L 1 8 L 10 8 L 13 5 L 4 5 z M 11 9 L 11 11 L 9 11 L 9 13 L 11 13 L 11 15 L 13 15 L 13 13 L 15 13 L 15 11 L 13 11 L 13 9 L 11 9 z"/>
</svg>
